!!!COM: Corelli, Arcangelo
!!!OTL: 
!!!ONM: Opus 3, No. 6
!!!OMV: 2
!!!CDT: 1653/2/17/-1713/1/8/
!!!OCY: Italia
**kern	**kern	**kern	**kern
*clefC	*clefC	*clefG	*clefG
*k[]	*k[]	*k[]	*k[]
*a:	*a:	*a:	*a:
*M4/4	*M4/4	*M4/4	*M4/4
=1	=1	=1	=1
4E	1r	1r	2b
4D	.	.	.
4C	.	.	4e
4BB	.	.	4f#
=2	=2	=2	=2
4EE	4r	1r	4.g
2e	2e	.	.
.	.	.	16f#
.	.	.	16e
.	.	.	8f#
.	.	.	8B
4d	4d	.	[4b
=3	=3	=3	=3
2c	2c	4r	8b]
.	.	.	8e
.	.	2ee	4a
4.B	4.B	.	4g
.	.	[4dd	4f#
8A	8A	.	.
=4	=4	=4	=4
8G#	8G#	4dd]	4.e
8E	8E	.	.
2A	2A	4cc	.
.	.	.	8e
.	.	4.b	4d#
8G	8G	.	[4ee
8A	8A	16a	.
.	.	16g	.
=5	=5	=5	=5
2B	2B	4f#	4ee]
.	.	2bb	4dd#
4E	4E	.	2ccc
4F#	4F#	[4aa	.
=6	=6	=6	=6
8G	8G	4aa]	2bb
8D	8D	.	.
4G	4G	2gg	.
4C#	4C#	.	2aa
4D#	4D#	[4ff#	.
=7	=7	=7	=7
8E	8E	4ff#]	2gg
8BB	8BB	.	.
2e	2e	4ee	.
.	.	8a#	4ff#
.	.	8f#	.
8d	8d	8ff#	[4bb
8e	8e	8gg	.
=8	=8	=8	=8
4f#	4f#	4dd	4bb]
4F#	4F#	4cc#	4aa#
4.G	4.G	4b	4bb
.	.	4r	[4ee
8A	8A	.	.
=9	=9	=9	=9
4.B	4.B	4.ff#	4ee]
.	.	.	4.dd
8A	8A	16gg	.
.	.	16ff#	.
8G#	8G#	4.ee	.
8E	8E	.	16cc
.	.	.	16b
[4A	[4A	.	4cc
.	.	8a	.
=10	=10	=10	=10
4A]	4A]	4.dd	4b
4G#	4G#	.	4.b
.	.	16ee	.
.	.	16dd	.
4.A	4.A	4.cc	.
.	.	.	8e
.	.	.	[4a
8A	8A	16dd	.
.	.	16cc	.
=11	=11	=11	=11
4D#	4D#	[2b	4a]
4E	4E	.	4g
4.AA	4.AA	8b]	4.cc
.	.	8e	.
.	.	[4a	.
8AA	8AA	.	8cc
=12	=12	=12	=12
2.BB	2.BB	4a]	4d#
.	.	4g	4e
.	.	4d#	4f#
4AA	4AA	[4e	4g
=13	=13	=13	=13
2BB	2BB	4e]	2f#
.	.	4d#	.
4E	4E	4e	4e
4D	4D	4f#	4b
=14	=14	=14	=14
4r	4r	4r	4r
4C	4C	4e	8.a
.	.	.	16b
2BB	2BB	2d#	2b
==	==	==	==
*-	*-	*-	*-
!!!RWG: This file only contains pitch and duration data.
!!!RWG: Transposing instruments are not transposed.
!!!RWG: Durations of rests and tied notes may be interpreted.
!!!RWG: Key is interpreted using the Humdrum key tool.
!!!SCA: 
!!!YOR: Chrysander Edition
!!!AGN: chamber
!!!AFT: stage1
!!!ENC: F. Bennion
!!!END: 1997/04/15
!!!AST: baroque
!!!YEC: Copyright 1994, Center for Computer Assisted Research in the Humanities
!!!YEM: Rights to all derivative electronic formats reserved.
!!!YEM: Refer to licensing agreement for further details.
!!!YEN: United States of America
!!!EED: W.B. Hewlett
!!!KEY: 506292808
!!!EMD: Converted from MuseData to Humdrum Aug 9, 1999, by Bret Aarden using muse2kern.
!!!VTS: 888153492
